X: 47
T:Li coco
O:France
A:Provence
C:Trad.
R:Danse trad.
Z:Transcrit et/ou corrig? par Michel BELLON - 2005-03-06
Z:Pour toute observation mailto:galouvielle@free.fr
M:2/4
L:1/8
K:Cmaj
ABcd | e2az | efed | c2Az | ABcd | ed ef | ed cB | A2az | 
cBce | d2c2 | cBce | d2gz | ABcd | edef | edcB | A2az |]

<end>
<start>
